storage/app/icons/phosphoricons/thin/telegram-logo-thin.svg

<svg xmlns="http://www.w3.org/2000/svg" fill="currentColor" viewBox="0 0 256 256"><path d="M226.27 29.22a5 5 0 0 0-5.1-.87L18.51 107.66a10.22 10.22 0 0 0 1.75 19.56L76 138.16V200a12 12 0 0 0 7.51 11.13A12.1 12.1 0 0 0 88 212a12 12 0 0 0 8.62-3.68l28-29 43 37.71a12 12 0 0 0 7.89 3 12.5 12.5 0 0 0 3.74-.59 11.87 11.87 0 0 0 8-8.72l40.62-176.6a5 5 0 0 0-1.6-4.9M20 117.38a2.13 2.13 0 0 1 1.42-2.27l174.65-68.35-117 83.85-57.26-11.24a2.12 2.12 0 0 1-1.81-1.99m70.87 85.38A4 4 0 0 1 84 200v-56.3l34.58 30.3Zm88.58 6.14a4 4 0 0 1-6.57 2.09l-86.45-75.81 131.7-94.38Z"/></svg>

<svg xmlns="http://www.w3.org/2000/svg" viewBox="0 0 256 256" fill="currentColor"><path d="M226.27,29.22a5,5,0,0,0-5.1-.87L18.51,107.66a10.22,10.22,0,0,0,1.75,19.56L76,138.16V200a12,12,0,0,0,7.51,11.13A12.1,12.1,0,0,0,88,212a12,12,0,0,0,8.62-3.68l28-29,43,37.71a12,12,0,0,0,7.89,3,12.47,12.47,0,0,0,3.74-.59,11.87,11.87,0,0,0,8-8.72L227.87,34.12A5,5,0,0,0,226.27,29.22ZM20,117.38a2.13,2.13,0,0,1,1.42-2.27L196.07,46.76l-117,83.85L21.81,119.37A2.12,2.12,0,0,1,20,117.38Zm70.87,85.38A4,4,0,0,1,84,200V143.7L118.58,174Zm88.58,6.14a4,4,0,0,1-6.57,2.09L86.43,135.18,218.13,40.8Z"/></svg>
